resources/haticons/SVG/tv_off.svg

<!-- Generated by IcoMoon.io -->
<svg version="1.1" xmlns="http://www.w3.org/2000/svg" width="24" height="24" viewBox="0 0 24 24">
<title>tv_off</title>
<path d="M21 5.016q0.844 0 1.43 0.563t0.586 1.406v12q0 0.609-0.375 1.125l-1.641-1.641v-11.484h-11.484l-2.016-1.969h3.094l-3.281-3.328 0.703-0.703 3.984 4.031 3.984-4.031 0.703 0.703-3.281 3.328h7.594zM3 18.984h13.453l-12-12h-1.453v12zM0.984 3.563l1.266-1.313 19.453 19.5-1.266 1.266-1.969-2.016h-15.469q-0.797 0-1.406-0.609t-0.609-1.406v-12q0-0.703 0.445-1.242t1.102-0.68z"></path>
</svg>

<svg xmlns="http://www.w3.org/2000/svg" width="24" height="24"><path d="M21 5.016q.844 0 1.43.563t.586 1.406v12q0 .609-.375 1.125L21 18.469V6.985H9.516L7.5 5.016h3.094L7.313 1.688l.703-.703L12 5.016 15.984.985l.703.703-3.281 3.328H21zM3 18.984h13.453l-12-12H3v12zM.984 3.563L2.25 2.25l19.453 19.5-1.266 1.266L18.468 21H2.999q-.797 0-1.406-.609t-.609-1.406v-12q0-.703.445-1.242t1.102-.68z"/></svg>
